src/svg/backspace.svg

<svg version="1.2" baseProfile="tiny" xmlns="http://www.w3.org/2000/svg" width="24" height="24" viewBox="0 0 24 24"><path d="M19.5 5h-10c-1.266 0-2.834.807-3.57 1.837l-2.61 3.653-1.199 1.679c-.121.175-.122.492.003.664l1.188 1.664 2.619 3.667c.735 1.029 2.302 1.836 3.569 1.836h10c1.379 0 2.5-1.122 2.5-2.5v-10c0-1.378-1.121-2.5-2.5-2.5zm-2.293 9.793c.391.391.391 1.023 0 1.414-.195.195-.451.293-.707.293s-.512-.098-.707-.293l-2.293-2.293-2.293 2.293c-.195.195-.451.293-.707.293s-.512-.098-.707-.293c-.391-.391-.391-1.023 0-1.414l2.293-2.293-2.293-2.293c-.391-.391-.391-1.023 0-1.414s1.023-.391 1.414 0l2.293 2.293 2.293-2.293c.391-.391 1.023-.391 1.414 0s.391 1.023 0 1.414l-2.293 2.293 2.293 2.293z"/></svg>

<?xml version="1.0" encoding="iso-8859-1"?>
<!-- Generator: Adobe Illustrator 16.2.1, SVG Export Plug-In . SVG Version: 6.00 Build 0)  -->
<svg version="1.2" baseProfile="tiny" id="Layer_1" xmlns="http://www.w3.org/2000/svg" xmlns:xlink="http://www.w3.org/1999/xlink"
	 x="0px" y="0px" width="24px" height="24px" viewBox="0 0 24 24" xml:space="preserve">
<path d="M19.5,5h-10C8.234,5,6.666,5.807,5.93,6.837L3.32,10.49c-0.642,0.898-1.182,1.654-1.199,1.679
	C2,12.344,1.999,12.661,2.124,12.833c0.023,0.033,0.555,0.777,1.188,1.664l2.619,3.667C6.666,19.193,8.233,20,9.5,20h10
	c1.379,0,2.5-1.122,2.5-2.5v-10C22,6.122,20.879,5,19.5,5z M17.207,14.793c0.391,0.391,0.391,1.023,0,1.414
	C17.012,16.402,16.756,16.5,16.5,16.5s-0.512-0.098-0.707-0.293L13.5,13.914l-2.293,2.293C11.012,16.402,10.756,16.5,10.5,16.5
	s-0.512-0.098-0.707-0.293c-0.391-0.391-0.391-1.023,0-1.414l2.293-2.293l-2.293-2.293c-0.391-0.391-0.391-1.023,0-1.414
	s1.023-0.391,1.414,0l2.293,2.293l2.293-2.293c0.391-0.391,1.023-0.391,1.414,0s0.391,1.023,0,1.414L14.914,12.5L17.207,14.793z"/>
</svg>
